X:1
T:Der evangelische Kirchenchor
T:Immanuel! Der Herr ist hier
T:Max Reger
T:Text: Heinrich Cornelius Hecker
T:Immanuel! Der Herr ist hier
T:Nr. 4 aus Der evangelische Kirchenchor, WoO VI/17 
T:CPDL - Creative Commons Attribution Non Commercial 3.0
C:Max Reger
Z:Heinrich Cornelius Hecker
Z:CPDL - Creative Commons Attribution Non Commercial 3.0
%%score [ ( 1 2 ) ( 3 4 ) ]
L:1/8
Q:1/4=90
M:4/4
K:C
V:1 treble nm="Sopran\nAlt"
V:2 treble 
V:3 bass nm="Tenor\nBass"
V:4 bass 
V:1
"^Bewegt"!f!!<(! G2 | c2!<)! c2 BA G2 |!>(! A2 B2!>)! c2!<(! G2 | c2!<)! dc B2!>(! A2 | %4
w: 1.~Im-|ma- nu- el! * der|Herr, ist hier und|nimmt mein * Fleisch an|
w: 2.~Al-|so hat Gott * die|Welt ge- liebt, dass|er durch * frei- en|
w: 3.~Du,|wun- der- ba- * rer|Gott- mensch, wirst mein|Rat und * Kraft und|
w: 4.~Ge-|lobt sei Gott, * ge-|lobt sein Sohn in|die- ser * Freu- den-|
 G6!>)!!mf!!<(! G2 | c2 cB A2 c2!<)! |!f! f2!>(! e2 d2!>)!!f!"^più"!<(! G2 | A2 d2 c2!<)! B2 | %8
w: sich. Im-|ma- nu- * el! Ist|Gott mit mir, wer|ist dann wi- der|
w: Trieb den|ein- ge- * bor- nen|Sohn uns gibt. Wie|hat er uns so|
w: Held, mein|Va- ter * und mein|Frie- de- fürst, du|Hei- land al- ler|
w: zeit! Lobt,|En- gel, * ihn vor|sei- nem Thron, er-|heb ihn, Chris- ten-|
!>(! !fermata!c6!>)! |] %9
w: mich?|
w: lieb!|
w: Welt.|
w: heit!|
V:2
 D2 | E2 G2 F2 ED | C2 F2 E2 D2 | CE E^F G2 F2 | D6 D2 | EF G2 F2 G2 | A2 AG ^F2 G2 | %7
 =F2 A2 G2 GF | E6 |] %9
V:3
 G,2 | G,2 C2 DC B,2 | A,2 G,2 G,2 G,2 | E,A, B,A, D2 DC | B,6 G,2 | G,2 C2 CB, C2 | %6
 C2 ^C2 A,2 =C2 | C2 F2 E2 D2 | C6 |] %9
V:4
 B,,2 | C,2 E,2 D,2 E,2 | F,E, D,2 C,2 B,,2 | A,,2 ^G,,A,, B,,C, D,2 | G,,6 B,,2 | %5
 C,D, E,2 F,2 E,2 | F,G, A,2 D,2 E,2 | F,E, D,2 E,F, G,2 | !fermata![C,G,]6 |] %9

